X: 38
T: Missa Ma bouche rit / Agnus Dei
N: Derived from Mar1010e-Missa_Ma_bouche_rit-Agnus.krn
C: Johannes Martini
%%abc-version 2.0
%%abcx-abcm2ps-target-version 5.9.1 (29 Sep 2008)
%%abc-creator hum2abc beta
%%abcx-conversion-date 2019/02/17 07:19:41
%%abc-edited-by Jesse Rodin
%%abc-edited-by Chris Gage 10-22-2014
%%abcx-initial-encoding-date 2015/03/07/
%%humdrum-veritas 1507606903
%%humdrum-veritas-data 1886939459
%%linebreak <none>
%%barnumbers 0
L: 1/4
M: 4/2
Q: 1/2=120
%%staves [1 2 3 4]
V: 1 clef=treble
V: 2 clef=treble-8
V: 3 clef=treble-8
V: 4 clef=bass
K: C
[V:1] A6G2 | 
[V:2] A8 | 
[V:3] z8 | 
[V:4] z8 | 
[V:1] F4E4 | 
[V:2] A4c4- | 
[V:3] z8 | 
[V:4] z4A,4- | 
[V:1] C2E2F2A2- | 
[V:2] c2B2c2d2 | 
[V:3] z8 | 
[V:4] A,2G,2F,4 | 
[V:1] A2^G2A4- | 
[V:2] e6f2- | 
[V:3] z4A4- | 
[V:4] E,4z2D,2 | 
[V:1] A2B2c2BA | 
[V:2] f2e4d2 | 
[V:3] A2G2F4 | 
[V:4] F,2G,2A,4 | 
[V:1] G4c4 | 
[V:2] e4f4 | 
[V:3] E4A4 | 
[V:4] B,4C4 | 
[V:1] B6A2 | 
[V:2] g6a2- | 
[V:3] G6F2 | 
[V:4] D2E3A,D2- | 
[V:1] B2G2A4 | 
[V:2] a2g4^f2 | 
[V:3] E4D4 | 
[V:4] D2C2D4 | 
[V:1] G6FE | 
[V:2] g4z4 | 
[V:3] z2G4A2 | 
[V:4] G,4E,2F,2 | 
[V:1] D2G4F2 | 
[V:2] z8 | 
[V:3] B2c4B2 | 
[V:4] G,2E,2D,4 | 
[V:1] E2DCB,3A, | 
[V:2] c4d4 | 
[V:3] c3BG4 | 
[V:4] C,4z4 | 
[V:1] C4z2G2- | 
[V:2] c3BA2G2 | 
[V:3] z4e4- | 
[V:4] C,8 | 
[V:1] G2A2B2AB | 
[V:2] g8 | 
[V:3] e2c2d3c | 
[V:4] C,4G,4 | 
[V:1] c4B4 | 
[V:2] a4d2e2 | 
[V:3] A4G4 | 
[V:4] F,4z2G,2 | 
[V:1] A2B2G3F | 
[V:2] f2g2d2e2- | 
[V:3] d4B2c2- | 
[V:4] D,2G,4C,2 | 
[V:1] EDG4^F2 | 
[V:2] eBc2d4 | 
[V:3] c2G2A4 | 
[V:4] E,4D,4 | 
[V:1] G4z4 | 
[V:2] z2e2f2g2- | 
[V:3] G4A2B2 | 
[V:4] z8 | 
[V:1] z8 | 
[V:2] gce2dcc2- | 
[V:3] c2G4E2 | 
[V:4] z8 | 
[V:1] z8 | 
[V:2] c2B2c4 | 
[V:3] D4C4 | 
[V:4] z8 | 
[V:1] G8 | 
[V:2] e8 | 
[V:3] c4G2c2- | 
[V:4] C,4E,4 | 
[V:1] A4G2A2 | 
[V:2] A4B2c2 | 
[V:3] c2d2e4 | 
[V:4] F,4E,2C,2 | 
[V:1] B2c4B2 | 
[V:2] d2f2g4 | 
[V:3] d2c2d4 | 
[V:4] G,2A,2G,4 | 
[V:1] c4d2c2 | 
[V:2] e4d2c2 | 
[V:3] c4B2c2 | 
[V:4] C,4G,2A,2 | 
[V:1] A2B2cA2G | 
[V:2] f4e4 | 
[V:3] d2d4^c2 | 
[V:4] F,3G,A,4 | 
[V:1] F2_B3AA2- | 
[V:2] d4g2f2 | 
[V:3] d6c2 | 
[V:4] D,2G,4A,2 | 
[V:1] A2G2A4 | 
[V:2] e4c4 | 
[V:3] B4A4 | 
[V:4] E,4F,4 | 
[V:1] z8 | 
[V:2] B2c2d2e2 | 
[V:3] z2E2F2G2 | 
[V:4] G,3F,D,2C,2 | 
[V:1] z8 | 
[V:2] f2gg2fg2 | 
[V:3] A2B2cc2B | 
[V:4] C2B,G,A,2G,2 | 
[V:1] E3FG2A2- | 
[V:2] z2g2d2f2- | 
[V:3] c4B2c2 | 
[V:4] C,4z2F,2- | 
[V:1] A2B2c3A | 
[V:2] f2e2f4 | 
[V:3] d2cBA4 | 
[V:4] F,2G,2A,2C2 | 
[V:1] B2c2d2A2- | 
[V:2] g3ef2d2- | 
[V:3] G2E2D2F2 | 
[V:4] B,2G,2A,4 | 
[V:1] A2G2F2A2- | 
[V:2] d2^c2d4 | 
[V:3] E4D2F2- | 
[V:4] z4D,4 | 
[V:1] A2GFE4 | 
[V:2] c4g3f | 
[V:3] FGA2G2c2- | 
[V:4] F,3E,C,4 | 
[V:1] z2G4F2- | 
[V:2] e2d2e2d2- | 
[V:3] c2B2c2A2- | 
[V:4] G,4C,2D,2 | 
[V:1] F2E4D2 | 
[V:2] dcB2c2A2 | 
[V:3] A2G2F4 | 
[V:4] F,2G,2A,4 | 
[V:1] E8 ||  
[V:2] B8 ||  
[V:3] E8 ||  
[V:4] G,8 ||  
[V:1]  [K:C] [K:clef=treble][M:2/1]z8 | 
[V:2]  [K:C] [K:clef=treble-8][M:2/1]z8 | 
[V:3]  [K:C] [K:clef=treble-8][M:2/1]z8 | 
[V:4]  [K:C] [K:clef=bass][M:2/1]E,3F,G,3A, | 
[V:1] z4E2F2 | 
[V:2] z8 | 
[V:3] z8 | 
[V:4] B,2C4A,2 | 
[V:1] G3AB2c2- | 
[V:2] z8 | 
[V:3] z8 | 
[V:4] B,2C2G,2A,2- | 
[V:1] c2A2B2c2 | 
[V:2] z8 | 
[V:3] z8 | 
[V:4] A,2F,2E,4 | 
[V:1] G2A4F2 | 
[V:2] z8 | 
[V:3] z8 | 
[V:4] C4D4 | 
[V:1] E2c2d2e2- | 
[V:2] z8 | 
[V:3] z8 | 
[V:4] E4z2E,2- | 
[V:1] e2d2c2BA | 
[V:2] z8 | 
[V:3] z8 | 
[V:4] E,F,G,2A,2G,2 | 
[V:1] G2A4^G2 | 
[V:2] z8 | 
[V:3] z8 | 
[V:4] C2A,2B,4 | 
[V:1] A4c4 | 
[V:2] z8 | 
[V:3] z8 | 
[V:4] A,3G,E,2A,2- | 
[V:1] B4E3D | 
[V:2] z8 | 
[V:3] z8 | 
[V:4] A,2G,2A,4- | 
[V:1] E2F3EDC | 
[V:2] z8 | 
[V:3] z8 | 
[V:4] A,4D,2G,2- | 
[V:1] B,2E4D2 | 
[V:2] z8 | 
[V:3] z8 | 
[V:4] G,2A,2B,4 | 
[V:1] C2G3AB2 | 
[V:2] z8 | 
[V:3] z8 | 
[V:4] C3B,G,4 | 
[V:1] c2BAG2A2 | 
[V:2] z8 | 
[V:3] z8 | 
[V:4] z2E4C2 | 
[V:1] D2G4^F2 | 
[V:2] z8 | 
[V:3] z8 | 
[V:4] D2B,2A,4 | 
[V:1] G4z4 | 
[V:2] G2c4d2 | 
[V:3] z8 | 
[V:4] z8 | 
[V:1] G8 | 
[V:2] e2dcB2c2- | 
[V:3] z8 | 
[V:4] z8 | 
[V:1] A8 | 
[V:2] c2F2c3A | 
[V:3] z8 | 
[V:4] z8 | 
[V:1] G2A2B3A | 
[V:2] B2c2G2g2- | 
[V:3] z8 | 
[V:4] z8 | 
[V:1] G2c4B2 | 
[V:2] g2fed4 | 
[V:3] z8 | 
[V:4] z8 | 
[V:1] c2A2B2c2 | 
[V:2] c3BG4 | 
[V:3] z8 | 
[V:4] z8 | 
[V:1] d2G3FED | 
[V:2] z8 | 
[V:3] z8 | 
[V:4] B,4C4 | 
[V:1] F4E4 | 
[V:2] z8 | 
[V:3] z8 | 
[V:4] D2D4^C2 | 
[V:1] D3EFGA2 | 
[V:2] z8 | 
[V:3] z8 | 
[V:4] D2B,2A,2C2 | 
[V:1] Bcd2c2B2- | 
[V:2] z8 | 
[V:3] z8 | 
[V:4] D2F2E4 | 
[V:1] BAA4^G2 | 
[V:2] z8 | 
[V:3] z8 | 
[V:4] D2C2B,4 | 
[V:1] A4z4 | 
[V:2] A4E3F | 
[V:3] z8 | 
[V:4] z8 | 
[V:1] z8 | 
[V:2] G2A2B2c2 | 
[V:3] z8 | 
[V:4] E,3F,G,2A,2 | 
[V:1] z8 | 
[V:2] d2e2d4 | 
[V:3] z8 | 
[V:4] B,2C4B,2 | 
[V:1] E2G3AB2 | 
[V:2] c4z4 | 
[V:3] z8 | 
[V:4] C4B,2G,2 | 
[V:1] c2C2E3F | 
[V:2] z8 | 
[V:3] z8 | 
[V:4] A,3G,E,2G,2- | 
[V:1] G2A2A,2C2- | 
[V:2] z8 | 
[V:3] z8 | 
[V:4] G,F,D,2F,3E, | 
[V:1] CDE2F2E2- | 
[V:2] z8 | 
[V:3] z8 | 
[V:4] C,2C2A,3G, | 
[V:1] ECD2E2A,2 | 
[V:2] z8 | 
[V:3] z8 | 
[V:4] E,2F,2C,2D,2 | 
[V:1] CB,E2D2F2- | 
[V:2] z8 | 
[V:3] z8 | 
[V:4] E,2G,2F,2A,2- | 
[V:1] FEE4D2 | 
[V:2] z8 | 
[V:3] z8 | 
[V:4] A,2G,2F,4 | 
[V:1] E8 ||  
[V:2] B8 ||  
[V:3] z8 ||  
[V:4] E,8 ||  



